Numix-Light-GalliumOS/24/status/dropboxstatus-busy.svg

<?xml version="1.0" encoding="UTF-8" standalone="no"?>
<svg
   xmlns:dc="http://purl.org/dc/elements/1.1/"
   xmlns:cc="http://creativecommons.org/ns#"
   xmlns:rdf="http://www.w3.org/1999/02/22-rdf-syntax-ns#"
   xmlns:svg="http://www.w3.org/2000/svg"
   xmlns="http://www.w3.org/2000/svg"
   xmlns:sodipodi="http://sodipodi.sourceforge.net/DTD/sodipodi-0.dtd"
   xmlns:inkscape="http://www.inkscape.org/namespaces/inkscape"
   width="24"
   height="24"
   viewBox="0 0 24 24"
   id="svg2991"
   version="1.1"
   inkscape:version="0.91 r"
   sodipodi:docname="dropboxstatus-busy.svg">
  <metadata
     id="metadata3003">
    <rdf:RDF>
      <cc:Work
         rdf:about="">
        <dc:format>image/svg+xml</dc:format>
        <dc:type
           rdf:resource="http://purl.org/dc/dcmitype/StillImage" />
      </cc:Work>
    </rdf:RDF>
  </metadata>
  <defs
     id="defs3001" />
  <sodipodi:namedview
     pagecolor="#ffffff"
     bordercolor="#666666"
     borderopacity="1"
     objecttolerance="10"
     gridtolerance="10"
     guidetolerance="10"
     inkscape:pageopacity="0"
     inkscape:pageshadow="2"
     inkscape:window-width="1366"
     inkscape:window-height="747"
     id="namedview2999"
     showgrid="false"
     inkscape:zoom="13.906433"
     inkscape:cx="9.4452714"
     inkscape:cy="5.1353805"
     inkscape:window-x="0"
     inkscape:window-y="21"
     inkscape:window-maximized="1"
     inkscape:current-layer="svg2991" />
  <path
     style="fill:#353535;fill-opacity:1"
     inkscape:connector-curvature="0"
     id="path2997"
     d="M 7.4982094,4.5 3,8.0019536 7.4982094,11.002605 3,15.002279 12,21 21,15.002279 16.501791,11.002605 21,8.0019536 16.501791,4.5 12,8.0019536 Z M 9.8117785,9.0009764 12.687624,9.75293 11.154795,12.313151 10.7501,11.314128 c -1.0744134,0.479818 -1.7512943,1.52181 -1.7512943,2.689128 0,1.206705 0.7592528,2.31315 1.9088743,2.749999 l -0.533626,1.375001 c -1.7226417,-0.655274 -2.8758446,-2.313152 -2.8758446,-4.125 0,-1.776042 1.0744131,-3.358725 2.7218466,-4.064128 z M 13.658178,9.878256 c 1.719061,0.673177 2.843613,2.302407 2.843613,4.125 0,1.758137 -1.077995,3.369465 -2.721847,4.060546 l 0.343812,0.938151 -2.750497,-0.780598 1.471946,-2.531575 0.372463,0.999022 c 1.067251,-0.472657 1.783526,-1.528971 1.783526,-2.685546 0,-1.217448 -0.727019,-2.30241 -1.876642,-2.750001 z" />
</svg>

<svg xmlns="http://www.w3.org/2000/svg" viewBox="0 0 24 24">
 <path d="m 7.498 4.5 -4.498 3.502 4.498 3 -4.498 4 9 5.998 9 -5.998 -4.498 -4 4.498 -3 -4.498 -3.502 -4.502 3.502 m -2.188 0.999 2.876 0.752 -1.533 2.56 -0.405 -0.999 c -1.074 0.48 -1.751 1.522 -1.751 2.689 0 1.207 0.759 2.313 1.909 2.75 l -0.534 1.375 c -1.723 -0.655 -2.876 -2.313 -2.876 -4.125 0 -1.776 1.074 -3.359 2.722 -4.064 z m 3.846 0.877 c 1.719 0.673 2.844 2.302 2.844 4.125 0 1.758 -1.078 3.369 -2.722 4.061 l 0.344 0.938 -2.75 -0.781 1.472 -2.532 0.372 0.999 c 1.067 -0.473 1.784 -1.529 1.784 -2.686 0 -1.217 -0.727 -2.302 -1.877 -2.75 z" style="fill:#353535;fill-opacity:1"/>
</svg>
